X:77
T: WIR BITTEN DICH O JESULEIN
N: K1589
O: Europa, Mitteleuropa, Deutschland, Westfalen
R: Kinder - Lied, religioes, Gebet
M: 4/4
L: 1/16
K: F
F2G2 | A4A4A4c4 | B4A4G4
c2B2 | A6GAB8 | A8z4
c4 | f4e4d4c2e2 | d4d4c4
f4 | c6B2A4G4 | A12

@@@ Tune index: 7414
